code/images/icons/top_sound.svg

<svg width="26.016" xmlns="http://www.w3.org/2000/svg" height="18" viewBox="0 0 26.016 18" xmlns:xlink="http://www.w3.org/1999/xlink" enable-background="new 0 0 26.016 18">
<path fill="#555" d="m26.015,9.034c0,3.181-1.173,6.3-3.3,8.791l-.146,.172-1.859-1.431 .144-.166c1.783-2.088 2.761-4.703 2.761-7.366 0-2.71-1.014-5.365-2.845-7.472l-.154-.172 1.899-1.379 .144,.166c2.166,2.497 3.356,5.644 3.356,8.857zm-9.741-5.618c1.348,1.515 2.156,3.459 2.156,5.575 0,2.026-.747,3.896-1.993,5.378l1.56,1.191c1.533-1.808 2.453-4.092 2.453-6.571 0-2.555-.97-4.896-2.575-6.726l-1.601,1.153zm-16.274,1.584v8h7l7,5v-18l-7,5h-7z"/>
</svg>

<?xml version="1.0" encoding="utf-8"?>
<!-- Generator: Adobe Illustrator 13.0.0, SVG Export Plug-In . SVG Version: 6.00 Build 14948)  -->
<!DOCTYPE svg PUBLIC "-//W3C//DTD SVG 1.1//EN" "http://www.w3.org/Graphics/SVG/1.1/DTD/svg11.dtd">
<svg version="1.1" id="Layer_1" xmlns="http://www.w3.org/2000/svg" xmlns:xlink="http://www.w3.org/1999/xlink" x="0px" y="0px"
	 width="26.016px" height="18px" viewBox="0 0 26.016 18" enable-background="new 0 0 26.016 18" xml:space="preserve">
<path fill="#555555" d="M26.015,9.034c0,3.181-1.173,6.3-3.3,8.791l-0.146,0.172l-1.859-1.431l0.144-0.166
	c1.783-2.088,2.761-4.703,2.761-7.366c0-2.71-1.014-5.365-2.845-7.472L20.616,1.39l1.899-1.379l0.144,0.166
	C24.825,2.674,26.015,5.821,26.015,9.034z M16.274,3.416c1.348,1.515,2.156,3.459,2.156,5.575c0,2.026-0.747,3.896-1.993,5.378
	l1.56,1.191c1.533-1.808,2.453-4.092,2.453-6.571c0-2.555-0.97-4.896-2.575-6.726L16.274,3.416z M0,5v8h7l7,5V0L7,5H0z"/>
</svg>
